;FLAVOR:RepRap
;TIME:523
;Filament used: 0.927382m
;Layer height: 0.2
;MINX:144.835
;MINY:140.335
;MINZ:0.3
;MAXX:167.165
;MAXY:166.665
;MAXZ:8.7
;TARGET_MACHINE.NAME:Unknown
;Generated with Cura_SteamEngine 5.5.0
T0
M140 S80
M104 S247
M82 ;absolute extrusion mode
M98 P"startPrint.g"
M83 ;relative extrusion mode
G10
;LAYER_COUNT:43
;LAYER:0
M107
;MESH:keyboard-Part.amf
G0 F30000 X150.221 Y147.797 Z0.3
;TYPE:WALL-OUTER
G11
G1 F17821.8 X150.356 Y147.638 E0.00526
G1 F17475.7 X150.587 Y147.464 E0.00743
G1 F17307.7 X150.854 Y147.35 E0.00753
G1 F17475.7 X151.134 Y147.304 E0.00729
G1 F17647.1 X151.428 Y147.329 E0.00751
G1 F17561 X151.703 Y147.423 E0.00743
G1 F17475.7 X151.944 Y147.576 E0.00733
G1 F17734 X152.241 Y147.94 E0.01189
G10
G0 F30000 X154.08 Y150.5
G11
G1 F9000 X150.068 Y150.5 E0.20016
G1 X149.932 Y150.431 E0.00761
G1 X149.886 Y150.335 E0.00531
G1 X149.886 Y149.203 E0.05648
G1 F10650.9 X150.098 Y149.136 E0.00937
G1 F15126.1 X150.221 Y149.203 E0.00416
G1 F13899.6 X150.061 Y149.071 E0.0067
G1 F10027.9 X149.928 Y148.834 E0.01217
G1 F9000 X149.884 Y148.5 E0.01681
G1 X149.919 Y148.198 E0.01517
G1 X150.03 Y147.906 E0.01558
G1 X149.886 Y147.79 E0.00923
G1 X149.884 Y146.7 E0.05438
G1 X149.935 Y146.565 E0.0072
G1 X150.049 Y146.502 E0.0065
G1 X154.051 Y146.506 E0.19966
G1 X154.195 Y146.651 E0.0102
G1 X154.197 Y147.036 E0.01921
G1 X153.975 Y147.362 E0.01968
G1 X153.911 Y147.524 E0.00869
G1 X153.901 Y147.917 E0.01961
G1 X154.03 Y148.306 E0.02045
G1 X154.029 Y148.7 E0.01966
G1 X153.901 Y149.083 E0.02015
G1 X153.91 Y149.476 E0.01961
G1 X154.197 Y149.962 E0.02816
G1 X154.195 Y150.348 E0.01926
G1 X154.08 Y150.5 E0.00951
G0 F30000 X154.489 Y150.552
;TYPE:WALL-INNER
G1 F9000 X154.275 Y150.778 E0.01165
G1 X154 Y150.85 E0.01064
G1 X150.042 Y150.849 E0.1481
G1 X149.793 Y150.768 E0.0098
G1 X149.666 Y150.659 E0.00626
G1 X149.534 Y150.367 E0.01199
G1 X149.534 Y149.225 E0.04273
G1 X149.621 Y149.01 E0.00868
G1 X149.537 Y148.433 E0.02182
G1 X149.62 Y147.991 E0.01683
G1 X149.534 Y147.814 E0.00736
G1 X149.534 Y146.7 E0.04168
G1 X149.573 Y146.495 E0.00781
G1 X149.675 Y146.331 E0.00723
G1 X149.808 Y146.223 E0.00641
G1 X150.084 Y146.15 E0.01068
G1 X154.094 Y146.15 E0.15004
G1 X154.267 Y146.218 E0.00696
G1 X154.449 Y146.381 E0.00914
G1 X154.534 Y146.566 E0.00762
G1 X154.542 Y147.1 E0.01998
G1 X154.46 Y147.303 E0.00819
G1 X154.259 Y147.596 E0.0133
G1 X154.252 Y147.863 E0.00999
G1 X154.377 Y148.261 E0.01561
G1 X154.377 Y148.743 E0.01804
G1 X154.252 Y149.137 E0.01547
G1 X154.259 Y149.404 E0.00999
G1 X154.46 Y149.697 E0.0133
G1 X154.54 Y149.894 E0.00796
G1 X154.535 Y150.43 E0.02006
G1 X154.489 Y150.552 E0.00488
G10
G0 F30000 X149.635 Y151.022
G11
G1 F9000 X149.439 Y150.854 E0.00966
G1 X149.29 Y150.605 E0.01086
G1 X149.234 Y150.404 E0.00781
G1 X149.234 Y149.183 E0.04569
G1 X149.295 Y148.976 E0.00807
G1 X149.239 Y148.397 E0.02177
G1 X149.295 Y148.024 E0.01411
G1 X149.234 Y147.817 E0.00807
G1 X149.234 Y146.7 E0.0418
G1 X149.294 Y146.384 E0.01204
G1 X149.453 Y146.13 E0.01121
G1 X149.658 Y145.964 E0.00987
G1 X149.86 Y145.879 E0.0082
G1 X150.084 Y145.85 E0.00845
G1 X154.149 Y145.85 E0.1521
G1 X154.412 Y145.956 E0.01061
G1 X154.693 Y146.207 E0.0141
G1 X154.825 Y146.493 E0.01179
G1 X154.837 Y147.155 E0.02477
G1 X154.71 Y147.468 E0.01264
G1 X154.558 Y147.672 E0.00952
G1 X154.554 Y147.816 E0.00539
G1 X154.675 Y148.222 E0.01585
G1 X154.68 Y148.799 E0.02159
G1 X154.554 Y149.184 E0.01516
G1 X154.557 Y149.328 E0.00539
G1 X154.78 Y149.661 E0.015
G1 X154.834 Y149.836 E0.00685
G1 X154.827 Y150.501 E0.02488
G1 X154.756 Y150.69 E0.00755
G1 F12000 X154.388 Y150.974 E0.01305
G1 F12162.2 X154 Y151.146 E0.01175
G1 F9121.6 X150.019 Y151.148 E0.14697
G1 F9000 X149.635 Y151.022 E0.01512
G10
G0 F30000 X165.65 Y165.15
G11
G1 F9000 X165.65 Y141.85 E0.87183
G1 X146.35 Y141.85 E0.72216
G1 X146.35 Y165.15 E0.87183
G1 X165.65 Y165.15 E0.72216
G0 F30000 X165.95 Y165.45
G1 F9000 X165.95 Y141.55 E0.89428
G1 X146.05 Y141.55 E0.74461
G1 X146.05 Y165.45 E0.89428
G1 X165.95 Y165.45 E0.74461
G10
G0 F30000 X162.779 Y151.353
;TYPE:WALL-OUTER
G11
G1 F17821.8 X162.644 Y151.512 E0.00526
G1 F17475.7 X162.413 Y151.686 E0.00743
G1 F17307.7 X162.146 Y151.8 E0.00753
G1 X161.866 Y151.846 E0.00736
G1 F17475.7 X161.572 Y151.821 E0.00758
G1 F17561 X161.297 Y151.727 E0.00743
G1 F17391.3 X161.056 Y151.574 E0.00737
G1 F17647.1 X160.75 Y151.196 E0.01237
G10
G0 F30000 X158.876 Y152.608
G11
G1 F9000 X158.812 Y152.522 E0.00535
G1 X158.8 Y152.15 E0.01857
G1 X158.839 Y152.03 E0.0063
G1 X159.072 Y151.763 E0.01768
G1 X159.19 Y151.403 E0.0189
G1 X159.18 Y151.213 E0.00949
G1 X159.064 Y150.805 E0.02116
G1 X159.07 Y150.452 E0.01761
G1 X159.18 Y150.087 E0.01902
G1 X159.189 Y149.895 E0.00959
G1 X159.072 Y149.537 E0.01879
G1 X158.817 Y149.232 E0.01983
G1 X158.803 Y148.81 E0.02107
G1 X158.918 Y148.652 E0.00975
G1 X162.956 Y148.65 E0.20146
G1 X163.116 Y148.773 E0.01007
G1 X163.114 Y149.947 E0.05857
G1 F10650.9 X162.902 Y150.014 E0.00937
G1 F15126.1 X162.779 Y149.947 E0.00416
G1 F13846.2 X162.94 Y150.082 E0.00681
G1 F10000 X163.072 Y150.316 E0.01206
G1 F9000 X163.116 Y150.65 E0.01681
G1 X163.072 Y150.984 E0.01681
G1 F10027.9 X162.939 Y151.221 E0.01217
G1 F13899.6 X162.779 Y151.353 E0.0067
G1 F15126.1 X162.902 Y151.286 E0.00416
G1 F10650.9 X163.116 Y151.351 E0.00943
G1 F9000 X163.114 Y152.485 E0.05658
G1 X163.036 Y152.61 E0.00735
G1 X162.956 Y152.65 E0.00446
G1 X159 Y152.65 E0.19737
G1 X158.876 Y152.608 E0.00653
G10
G0 F30000 X163.246 Y152.89
;TYPE:WALL-INNER
G11
G1 F9000 X163.026 Y153 E0.0092
G1 X159 Y153 E0.15064
G1 F10037.2 X158.678 Y152.859 E0.01179
G1 F11538.5 X158.485 Y152.45 E0.0132
G1 F10188.7 X158.45 Y152.15 E0.00998
G1 F9000 X158.558 Y151.821 E0.01296
G1 X158.775 Y151.57 E0.01242
G1 X158.838 Y151.377 E0.0076
G1 X158.714 Y150.822 E0.02128
G1 X158.729 Y150.374 E0.01677
G1 X158.838 Y149.921 E0.01743
G1 X158.776 Y149.729 E0.00755
G1 X158.55 Y149.468 E0.01292
G1 X158.475 Y149.315 E0.00638
G1 X158.451 Y148.811 E0.01888
G1 X158.524 Y148.574 E0.00928
G1 X158.729 Y148.37 E0.01082
G1 X158.935 Y148.3 E0.00814
G1 X163.026 Y148.3 E0.15308
G1 X163.246 Y148.41 E0.0092
G1 X163.402 Y148.591 E0.00894
G1 X163.466 Y148.85 E0.00998
G1 X163.466 Y149.929 E0.04037
G1 X163.379 Y150.14 E0.00854
G1 X163.466 Y150.65 E0.01936
G1 X163.379 Y151.16 E0.01936
G1 X163.466 Y151.357 E0.00806
G1 X163.466 Y152.525 E0.0437
G1 X163.402 Y152.709 E0.00729
G1 X163.246 Y152.89 E0.00894
G0 F30000 X163.426 Y153.13
G1 F9000 X163.154 Y153.266 E0.01138
G1 X162.916 Y153.3 E0.009
G1 X159 Y153.3 E0.14653
G1 X158.904 Y153.267 E0.0038
G1 X158.92 Y153.602 E0.01255
G1 X158.846 Y154.204 E0.02269
G1 X158.595 Y154.865 E0.02646
G1 X158.189 Y155.442 E0.0264
G1 X157.645 Y155.924 E0.0272
G1 X157.036 Y156.235 E0.02559
G1 X156.397 Y156.398 E0.02468
G1 X155.657 Y156.412 E0.02769
G1 X154.964 Y156.235 E0.02676
G1 X154.355 Y155.924 E0.02559
G1 X153.811 Y155.442 E0.0272
G1 X153.405 Y154.865 E0.0264
G1 X153.155 Y154.206 E0.02637
G1 X153.068 Y153.497 E0.02673
G1 X153.152 Y152.8 E0.02627
G1 X153.368 Y152.233 E0.0227
G1 X153.746 Y151.641 E0.02628
G1 F9121.6 X154.068 Y151.327 E0.0166
G1 F12162.2 X154.46 Y151.106 E0.01246
G1 F12000 X154.926 Y150.767 E0.01617
G1 F9000 X155.633 Y150.593 E0.02724
G1 X156.358 Y150.591 E0.02713
G1 X157.03 Y150.763 E0.02596
G1 X157.656 Y151.081 E0.02627
G1 X158.123 Y151.492 E0.02328
G1 X158.297 Y151.703 E0.01023
G1 X158.545 Y151.365 E0.01569
G1 X158.414 Y150.837 E0.02036
G1 X158.437 Y150.307 E0.01985
G1 X158.536 Y149.943 E0.01411
G1 X158.271 Y149.589 E0.01655
G1 X158.151 Y149.203 E0.01513
G1 X158.151 Y148.79 E0.01545
G1 X158.264 Y148.423 E0.01437
G1 X158.415 Y148.233 E0.00908
G1 X158.582 Y148.109 E0.00778
G1 X158.9 Y148 E0.01258
G1 X162.916 Y148 E0.15027
G1 X163.154 Y148.034 E0.009
G1 X163.426 Y148.17 E0.01138
G1 X163.666 Y148.45 E0.0138
G1 X163.766 Y148.85 E0.01543
G1 X163.766 Y149.969 E0.04187
G1 X163.705 Y150.174 E0.008
G1 X163.766 Y150.65 E0.01796
G1 X163.705 Y151.126 E0.01796
G1 X163.766 Y151.319 E0.00757
G1 X163.766 Y152.563 E0.04655
G1 X163.666 Y152.85 E0.01137
G1 X163.426 Y153.13 E0.0138
G10
G0 F30000 X156.317 Y156.107
G11
G1 F9000 X155.682 Y156.106 E0.02376
G1 X155.071 Y155.955 E0.02355
G1 X154.504 Y155.658 E0.02395
G1 X154.035 Y155.242 E0.02346
G1 X153.672 Y154.722 E0.02373
G1 X153.47 Y154.192 E0.02122
G1 X153.378 Y153.567 E0.02364
G1 X153.444 Y152.877 E0.02594
G1 X153.648 Y152.34 E0.02149
G1 X154.025 Y151.761 E0.02585
G1 X154.514 Y151.335 E0.02427
G1 X155.075 Y151.039 E0.02373
G1 X155.702 Y150.892 E0.0241
G1 X156.322 Y150.891 E0.0232
G1 X156.925 Y151.044 E0.02328
G1 X157.49 Y151.334 E0.02376
G1 X157.97 Y151.758 E0.02396
G1 X158.29 Y152.223 E0.02112
G1 F11790.4 X158.403 Y152.678 E0.01339
G1 F13636.4 X158.531 Y152.941 E0.00722
G1 F10037.2 X158.632 Y153.486 E0.0186
G1 F9000 X158.552 Y154.133 E0.02439
G1 X158.329 Y154.722 E0.02357
G1 X157.965 Y155.242 E0.02375
G1 X157.496 Y155.658 E0.02346
G1 X156.929 Y155.955 E0.02395
G1 X156.317 Y156.107 E0.0236
G10
G0 F30000 X159.984 Y150.86
;TYPE:WALL-OUTER
G11
G1 F7072.7 X159.867 Y151.189 E0.02217
G1 F7200 X159.866 Y151.65 E0.02875
G1 X160.366 Y151.65 E0.03118
G1 F7185.6 X160.367 Y151.25 E0.025
G1 F7072.7 X160.436 Y151.1 E0.01048
G1 F8716.7 X160.645 Y151.119 E0.01081
G1 F14117.6 X160.75 Y151.196 E0.00414
G1 F10055.9 X160.491 Y150.945 E0.0161
G1 F6949.8 X160.49 Y150.355 E0.03812
G1 F8571.4 X160.656 Y150.183 E0.01252
G1 F8977.6 X160.495 Y150.221 E0.00827
G1 F7200 X160.421 Y150.187 E0.00508
G1 F7072.7 X160.366 Y150.028 E0.01068
G1 F7200 X160.366 Y149.65 E0.02357
G1 X159.866 Y149.65 E0.03118
G1 X159.866 Y150.096 E0.02781
G1 F7072.7 X159.968 Y150.387 E0.01958
G1 F6949.8 X159.984 Y150.86 E0.03058
G10
G0 F30000 X160.758 Y150.091
G11
G1 F17647.1 X161.056 Y149.726 E0.01199
G1 F17307.7 X161.297 Y149.573 E0.00741
G1 F17391.3 X161.572 Y149.479 E0.0075
G1 F17561 X161.866 Y149.454 E0.00754
G1 F17647.1 X162.146 Y149.5 E0.00722
G1 F17561 X162.413 Y149.614 E0.00742
G1 F17475.7 X162.644 Y149.788 E0.00743
G1 F17734 X162.779 Y149.947 E0.00528
G10
G0 F30000 X153.016 Y148.29
G11
G1 F7072.7 X153.133 Y147.961 E0.02217
G1 F7200 X153.134 Y147.5 E0.02875
G1 F7214.4 X152.634 Y147.5 E0.03112
G1 F7200 X152.633 Y147.893 E0.02451
G1 F7072.7 X152.564 Y148.05 E0.01089
G1 F7228.9 X152.504 Y148.071 E0.00395
G1 F8977.6 X152.343 Y148.031 E0.0083
G1 F8571.4 X152.509 Y148.205 E0.0126
G1 F7128.7 X152.53 Y148.53 E0.02051
G1 F7114.6 X152.48 Y148.896 E0.02331
G1 F6923.1 X152.579 Y148.963 E0.00775
G1 F7058.8 X152.634 Y149.122 E0.0107
G1 F7200 X152.634 Y149.5 E0.02357
G1 X153.134 Y149.5 E0.03118
G1 X153.134 Y149.054 E0.02781
G1 F7058.8 X153.032 Y148.763 E0.01961
G1 F6949.8 X153.016 Y148.29 E0.03058
G10
G0 F30000 X152.233 Y149.072
G11
G1 F17734 X151.944 Y149.424 E0.01153
G1 F17475.7 X151.703 Y149.577 E0.00733
G1 X151.428 Y149.671 E0.00747
G1 X151.134 Y149.696 E0.00758
G1 F17561 X150.854 Y149.65 E0.00726
G1 X150.587 Y149.536 E0.00742
G1 X150.356 Y149.362 E0.00739
G1 F17821.8 X150.221 Y149.203 E0.00526
G10
G0 F30000 X156.285 Y155.758
G11
G1 F9000 X155.715 Y155.758 E0.02844
G1 X155.218 Y155.635 E0.02554
G1 X154.704 Y155.371 E0.02883
G1 X154.297 Y155.009 E0.02717
G1 X153.976 Y154.536 E0.02852
G1 X153.787 Y154.031 E0.0269
G1 X153.726 Y153.525 E0.02543
G1 X153.786 Y152.979 E0.0274
G1 X153.975 Y152.464 E0.02737
G1 X154.314 Y151.974 E0.02973
G1 X154.708 Y151.627 E0.02619
G1 X155.218 Y151.365 E0.02861
G1 X155.732 Y151.24 E0.02639
G1 X156.263 Y151.24 E0.02649
G1 X156.803 Y151.372 E0.02773
G1 X157.314 Y151.644 E0.02888
G1 X157.688 Y151.975 E0.02492
G1 X158.025 Y152.464 E0.02963
G1 X158.203 Y152.932 E0.02498
G1 X158.274 Y153.524 E0.02975
G1 X158.202 Y154.068 E0.02738
G1 X158.002 Y154.578 E0.02733
G1 X157.703 Y155.009 E0.02617
G1 X157.296 Y155.371 E0.02717
G1 X156.782 Y155.635 E0.02883
G1 X156.285 Y155.758 E0.02554
G10
G0 F30000 X166.3 Y165.8
G11
G1 F9000 X166.3 Y141.2 E1.2273
G1 X145.7 Y141.2 E1.02774
G1 X145.7 Y165.8 E1.2273
G1 X166.3 Y165.8 E1.02774
G10
G0 F30000 X163.583 Y153.403
;TYPE:SKIN
G11
G1 F9000 X163.96 Y152.968 E0.02872
G1 X164.079 Y152.614 E0.01863
G1 X164.079 Y151.412 E0.05997
G1 X164.029 Y151.116 E0.01498
G1 X164.081 Y150.65 E0.02339
G1 X164.032 Y150.189 E0.02313
G1 X164.079 Y150.012 E0.00914
G1 X164.081 Y148.852 E0.05787
G1 X163.949 Y148.3 E0.02832
G1 X163.582 Y147.897 E0.02719
G1 X163.217 Y147.724 E0.02015
G1 X162.94 Y147.686 E0.01395
G1 X158.851 Y147.687 E0.204
G1 X158.461 Y147.819 E0.02054
G1 X158.177 Y148.025 E0.0175
G1 X157.992 Y148.263 E0.01504
G1 X157.845 Y148.722 E0.02405
G1 X157.839 Y149.253 E0.02649
G1 X157.881 Y149.475 E0.01127
G1 X157.99 Y149.733 E0.01397
G1 X158.198 Y150.001 E0.01693
G1 X158.129 Y150.235 E0.01217
G1 X158.1 Y150.831 E0.02977
G1 X158.156 Y151.101 E0.01376
G1 X157.852 Y150.832 E0.02025
G1 X157.162 Y150.476 E0.03874
G1 X156.376 Y150.276 E0.04046
G1 X155.596 Y150.279 E0.03891
G1 X155.154 Y150.385 E0.02268
G1 X155.159 Y149.873 E0.02555
G1 X155.068 Y149.531 E0.01766
G1 X154.884 Y149.244 E0.01701
G1 X154.994 Y148.752 E0.02515
G1 X154.987 Y148.169 E0.02909
G1 X154.884 Y147.751 E0.02148
G1 X155.082 Y147.43 E0.01882
G1 X155.149 Y147.186 E0.01262
G1 X155.135 Y146.423 E0.03807
G1 X154.967 Y146.055 E0.02018
G1 X154.599 Y145.704 E0.02537
G1 X154.322 Y145.58 E0.01514
G1 X154.024 Y145.536 E0.01503
G1 X150.061 Y145.536 E0.19771
G1 X149.792 Y145.571 E0.01353
G1 X149.5 Y145.691 E0.01575
G1 X149.243 Y145.896 E0.0164
G1 X149.017 Y146.235 E0.02033
G1 X148.922 Y146.661 E0.02178
G1 X148.921 Y147.859 E0.05977
G1 X148.969 Y148.045 E0.00958
G1 X148.927 Y148.352 E0.01546
G1 X148.969 Y148.95 E0.02991
G1 X148.924 Y149.124 E0.00897
G1 X148.921 Y150.452 E0.06625
G1 X149.011 Y150.751 E0.01558
G1 X149.179 Y151.031 E0.01629
G1 X149.446 Y151.272 E0.01794
G1 X149.767 Y151.421 E0.01766
G1 X149.993 Y151.463 E0.01147
G1 X153.481 Y151.467 E0.17402
G1 X153.088 Y152.092 E0.03683
G1 X152.838 Y152.74 E0.03465
G1 X152.767 Y153.606 E0.04335
G1 X152.845 Y154.267 E0.03321
G1 X153.114 Y154.988 E0.03839
G1 X153.558 Y155.64 E0.03935
G1 X154.174 Y156.183 E0.04097
G1 X154.831 Y156.528 E0.03702
G1 X155.597 Y156.722 E0.03942
G1 X156.457 Y156.709 E0.04291
G1 X157.123 Y156.546 E0.03421
G1 X157.852 Y156.17 E0.04092
G1 X158.432 Y155.646 E0.039
G1 X158.886 Y154.988 E0.03988
G1 X159.158 Y154.253 E0.0391
G1 X159.236 Y153.615 E0.03207
G1 X162.94 Y153.614 E0.18479
G1 X163.217 Y153.576 E0.01395
G1 X163.583 Y153.403 E0.0202
G10
G0 F30000 X165.335 Y164.835
G11
G1 F9000 X146.665 Y164.835 E0.93145
G1 X146.665 Y142.165 E1.13101
G1 X165.335 Y142.165 E0.93145
G1 X165.335 Y164.835 E1.13101
G10
G0 F30000 X165.335 Y166.665
G0 X147.098 Y166.665
G0 X147.098 Y164.634
G11
G1 F9000 X146.863 Y164.4 E0.01655
G0 F30000 X146.863 Y163.834
G1 F9000 X147.663 Y164.634 E0.05644
G0 F30000 X148.229 Y164.634
G1 F9000 X146.863 Y163.268 E0.09638
G0 F30000 X146.863 Y162.703
G1 F9000 X148.795 Y164.634 E0.13628
G0 F30000 X149.36 Y164.634
G1 F9000 X146.863 Y162.137 E0.17618
G0 F30000 X146.863 Y161.571
G1 F9000 X149.926 Y164.634 E0.21611
G0 F30000 X150.492 Y164.634
G1 F9000 X146.863 Y161.006 E0.25601
G0 F30000 X146.863 Y160.44
G1 F9000 X151.057 Y164.634 E0.29591
G0 F30000 X151.623 Y164.634
G1 F9000 X146.863 Y159.874 E0.33584
G0 F30000 X146.863 Y159.309
G1 F9000 X152.189 Y164.634 E0.37574
G0 F30000 X152.754 Y164.634
G1 F9000 X146.863 Y158.743 E0.41564
G0 F30000 X146.863 Y158.177
G1 F9000 X153.32 Y164.634 E0.45558
G0 F30000 X153.886 Y164.634
G1 F9000 X146.863 Y157.611 E0.49551
G0 F30000 X146.863 Y157.046
G1 F9000 X154.451 Y164.634 E0.53537
G0 F30000 X155.017 Y164.634
G1 F9000 X146.863 Y156.48 E0.57531
G0 F30000 X146.863 Y155.914
G1 F9000 X155.583 Y164.634 E0.61524
G0 F30000 X156.148 Y164.634
G1 F9000 X146.863 Y155.349 E0.65511
G0 F30000 X146.863 Y154.783
G1 F9000 X156.714 Y164.634 E0.69504
G0 F30000 X157.28 Y164.634
G1 F9000 X146.863 Y154.217 E0.73498
G0 F30000 X146.863 Y153.652
G1 F9000 X157.846 Y164.634 E0.77487
G0 F30000 X158.411 Y164.634
G1 F9000 X146.863 Y153.086 E0.81477
G0 F30000 X146.863 Y152.52
G1 F9000 X158.977 Y164.634 E0.85471
G0 F30000 X159.543 Y164.634
G1 F9000 X146.863 Y151.955 E0.89461
G0 F30000 X146.863 Y151.389
G1 F9000 X160.108 Y164.634 E0.93451
G0 F30000 X160.674 Y164.634
