;FLAVOR:RepRap
;TIME:4559
;Filament used: 11.5717m
;Layer height: 0.2
;MINX:62.408
;MINY:85.614
;MINZ:0.3
;MAXX:249.592
;MAXY:221.379
;MAXZ:17.3
;TARGET_MACHINE.NAME:Unknown
;Generated with Cura_SteamEngine 5.5.0
T0
M140 S80
M104 S247
M82 ;absolute extrusion mode
M98 P"startPrint.g"
M83 ;relative extrusion mode
G10
;LAYER_COUNT:86
;LAYER:0
M107
;MESH:keyboard_right.amf
G0 F30000 X95.468 Y125.607 Z0.3
;TYPE:WALL-INNER
G11
G1 F9000 X95.309 Y125.453 E0.00828
G1 X95.186 Y125.243 E0.00911
G1 X95.087 Y124.94 E0.01193
G1 X95.087 Y110.331 E0.54663
G1 X95.156 Y109.993 E0.01291
G1 X95.329 Y109.682 E0.01332
G1 X95.492 Y109.532 E0.00829
G1 X95.966 Y109.339 E0.01915
G1 X110.575 Y109.339 E0.54663
G1 X110.913 Y109.408 E0.01291
G1 X111.216 Y109.574 E0.01293
G1 X111.459 Y109.893 E0.015
G1 X111.567 Y110.205 E0.01235
G1 X111.565 Y124.902 E0.54993
G1 X111.505 Y125.147 E0.00944
G1 X111.357 Y125.435 E0.01212
G1 X111.203 Y125.596 E0.00834
G1 X110.991 Y125.72 E0.00919
G1 X110.688 Y125.819 E0.01193
G1 X95.957 Y125.819 E0.5512
G1 X95.468 Y125.607 E0.01994
G10
G0 F30000 X96.59 Y124.316
G0 X110.064 Y124.316
G0 X111.016 Y125.362
G11
G1 F9000 X110.649 Y125.519 E0.01494
G1 X96 Y125.519 E0.54813
G1 X95.646 Y125.366 E0.01443
G1 X95.464 Y125.131 E0.01112
G1 X95.387 Y124.902 E0.00904
G1 X95.387 Y110.331 E0.54521
G1 X95.432 Y110.112 E0.00837
G1 X95.559 Y109.874 E0.01009
G1 X95.665 Y109.777 E0.00538
G1 X96.003 Y109.639 E0.01366
G1 X110.575 Y109.639 E0.54525
G1 X110.794 Y109.684 E0.00837
G1 X111.027 Y109.807 E0.00986
G1 X111.122 Y109.906 E0.00513
G1 X111.267 Y110.247 E0.01387
G1 X111.266 Y124.876 E0.54738
G1 X111.116 Y125.257 E0.01532
G1 X111.016 Y125.362 E0.00543
G10
G0 F30000 X130.253 Y125.596
G11
G1 F9000 X130.041 Y125.72 E0.00919
G1 X129.738 Y125.819 E0.01193
G1 X115.129 Y125.819 E0.54663
G1 X114.791 Y125.75 E0.01291
G1 X114.488 Y125.584 E0.01293
G1 X114.245 Y125.264 E0.01503
G1 X114.139 Y124.904 E0.01404
G1 X114.137 Y110.213 E0.5497
G1 X114.347 Y109.723 E0.01995
G1 X114.501 Y109.562 E0.00834
G1 X114.713 Y109.438 E0.00919
G1 X115.016 Y109.339 E0.01193
G1 X129.625 Y109.339 E0.54663
G1 X129.963 Y109.408 E0.01291
G1 X130.266 Y109.574 E0.01293
G1 X130.509 Y109.893 E0.015
G1 X130.617 Y110.205 E0.01235
G1 X130.615 Y124.902 E0.54993
G1 X130.555 Y125.147 E0.00944
G1 X130.407 Y125.435 E0.01212
G1 X130.253 Y125.596 E0.00834
G0 F30000 X130.066 Y125.362
G1 F9000 X129.699 Y125.519 E0.01494
G1 X115.129 Y125.519 E0.54518
G1 X114.91 Y125.474 E0.00837
G1 X114.677 Y125.351 E0.00986
G1 X114.514 Y125.131 E0.01025
G1 X114.438 Y124.878 E0.00988
G1 X114.437 Y110.253 E0.54723
G1 X114.588 Y109.901 E0.01433
G1 X114.688 Y109.796 E0.00543
G1 X115.055 Y109.639 E0.01494
G1 X129.625 Y109.639 E0.54518
G1 X129.844 Y109.684 E0.00837
G1 X130.077 Y109.807 E0.00986
G1 X130.172 Y109.906 E0.00513
G1 X130.317 Y110.247 E0.01387
G1 X130.316 Y124.876 E0.54738
G1 X130.166 Y125.257 E0.01532
G1 X130.066 Y125.362 E0.00543
G10
G0 F30000 X149.303 Y125.596
G11
G1 F9000 X149.091 Y125.72 E0.00919
G1 X148.788 Y125.819 E0.01193
G1 X134.179 Y125.819 E0.54663
G1 X133.841 Y125.75 E0.01291
G1 X133.538 Y125.584 E0.01293
G1 X133.295 Y125.264 E0.01503
G1 X133.189 Y124.904 E0.01404
G1 X133.187 Y110.213 E0.5497
G1 X133.397 Y109.723 E0.01995
G1 X133.551 Y109.562 E0.00834
G1 X133.763 Y109.438 E0.00919
G1 X134.066 Y109.339 E0.01193
G1 X148.675 Y109.339 E0.54663
G1 X149.013 Y109.408 E0.01291
G1 X149.316 Y109.574 E0.01293
G1 X149.559 Y109.893 E0.015
G1 X149.667 Y110.205 E0.01235
G1 X149.665 Y124.902 E0.54993
G1 X149.605 Y125.147 E0.00944
G1 X149.457 Y125.435 E0.01212
G1 X149.303 Y125.596 E0.00834
G0 F30000 X149.116 Y125.362
G1 F9000 X148.749 Y125.519 E0.01494
G1 X134.179 Y125.519 E0.54518
G1 X133.96 Y125.474 E0.00837
G1 X133.727 Y125.351 E0.00986
G1 X133.564 Y125.131 E0.01025
G1 X133.488 Y124.878 E0.00988
G1 X133.487 Y110.253 E0.54723
G1 X133.638 Y109.901 E0.01433
G1 X133.738 Y109.796 E0.00543
G1 X134.105 Y109.639 E0.01494
G1 X148.675 Y109.639 E0.54518
G1 X148.894 Y109.684 E0.00837
G1 X149.127 Y109.807 E0.00986
G1 X149.222 Y109.906 E0.00513
G1 X149.367 Y110.247 E0.01387
G1 X149.366 Y124.876 E0.54738
G1 X149.216 Y125.257 E0.01532
G1 X149.116 Y125.362 E0.00543
G10
G0 F30000 X168.353 Y125.596
G11
G1 F9000 X168.141 Y125.72 E0.00919
G1 X167.838 Y125.819 E0.01193
G1 X153.229 Y125.819 E0.54663
G1 X152.891 Y125.75 E0.01291
G1 X152.588 Y125.584 E0.01293
G1 X152.345 Y125.264 E0.01503
G1 X152.239 Y124.904 E0.01404
G1 X152.237 Y110.213 E0.5497
G1 X152.447 Y109.723 E0.01995
G1 X152.601 Y109.562 E0.00834
G1 X152.813 Y109.438 E0.00919
G1 X153.116 Y109.339 E0.01193
G1 X167.725 Y109.339 E0.54663
G1 X168.063 Y109.408 E0.01291
G1 X168.366 Y109.574 E0.01293
G1 X168.609 Y109.893 E0.015
G1 X168.717 Y110.205 E0.01235
G1 X168.715 Y124.902 E0.54993
G1 X168.655 Y125.147 E0.00944
G1 X168.507 Y125.435 E0.01212
G1 X168.353 Y125.596 E0.00834
G0 F30000 X168.166 Y125.362
G1 F9000 X167.799 Y125.519 E0.01494
G1 X153.229 Y125.519 E0.54518
G1 X153.01 Y125.474 E0.00837
G1 X152.777 Y125.351 E0.00986
G1 X152.614 Y125.131 E0.01025
G1 X152.538 Y124.878 E0.00988
G1 X152.537 Y110.253 E0.54723
G1 X152.688 Y109.901 E0.01433
G1 X152.788 Y109.796 E0.00543
G1 X153.155 Y109.639 E0.01494
G1 X167.725 Y109.639 E0.54518
G1 X167.944 Y109.684 E0.00837
G1 X168.177 Y109.807 E0.00986
G1 X168.272 Y109.906 E0.00513
G1 X168.417 Y110.247 E0.01387
G1 X168.416 Y124.876 E0.54738
G1 X168.266 Y125.257 E0.01532
G1 X168.166 Y125.362 E0.00543
G10
G0 F30000 X187.403 Y125.596
G11
G1 F9000 X187.191 Y125.72 E0.00919
G1 X186.888 Y125.819 E0.01193
G1 X172.279 Y125.819 E0.54663
G1 X171.941 Y125.75 E0.01291
G1 X171.638 Y125.584 E0.01293
G1 X171.395 Y125.264 E0.01503
G1 X171.289 Y124.904 E0.01404
G1 X171.287 Y110.213 E0.5497
G1 X171.497 Y109.723 E0.01995
G1 X171.651 Y109.562 E0.00834
G1 X171.863 Y109.438 E0.00919
G1 X172.166 Y109.339 E0.01193
G1 X186.775 Y109.339 E0.54663
G1 X187.113 Y109.408 E0.01291
G1 X187.416 Y109.574 E0.01293
G1 X187.659 Y109.893 E0.015
G1 X187.767 Y110.205 E0.01235
G1 X187.765 Y124.902 E0.54993
G1 X187.705 Y125.147 E0.00944
G1 X187.557 Y125.435 E0.01212
G1 X187.403 Y125.596 E0.00834
G0 F30000 X187.216 Y125.362
G1 F9000 X186.849 Y125.519 E0.01494
G1 X172.279 Y125.519 E0.54518
G1 X172.06 Y125.474 E0.00837
G1 X171.827 Y125.351 E0.00986
G1 X171.664 Y125.131 E0.01025
G1 X171.588 Y124.878 E0.00988
G1 X171.587 Y110.253 E0.54723
G1 X171.738 Y109.901 E0.01433
G1 X171.838 Y109.796 E0.00543
G1 X172.205 Y109.639 E0.01494
G1 X186.775 Y109.639 E0.54518
G1 X186.994 Y109.684 E0.00837
G1 X187.227 Y109.807 E0.00986
G1 X187.322 Y109.906 E0.00513
G1 X187.467 Y110.247 E0.01387
G1 X187.466 Y124.876 E0.54738
G1 X187.316 Y125.257 E0.01532
G1 X187.216 Y125.362 E0.00543
G10
G0 F30000 X206.453 Y125.596
G11
G1 F9000 X206.241 Y125.72 E0.00919
G1 X205.938 Y125.819 E0.01193
G1 X191.329 Y125.819 E0.54663
G1 X190.991 Y125.75 E0.01291
G1 X190.688 Y125.584 E0.01293
G1 X190.445 Y125.264 E0.01503
G1 X190.339 Y124.904 E0.01404
G1 X190.337 Y110.213 E0.5497
G1 X190.547 Y109.723 E0.01995
G1 X190.701 Y109.562 E0.00834
G1 X190.913 Y109.438 E0.00919
G1 X191.216 Y109.339 E0.01193
G1 X205.825 Y109.339 E0.54663
G1 X206.163 Y109.408 E0.01291
G1 X206.466 Y109.574 E0.01293
G1 X206.709 Y109.893 E0.015
G1 X206.817 Y110.205 E0.01235
G1 X206.815 Y124.902 E0.54993
G1 X206.755 Y125.147 E0.00944
G1 X206.607 Y125.435 E0.01212
G1 X206.453 Y125.596 E0.00834
G0 F30000 X206.266 Y125.362
G1 F9000 X205.899 Y125.519 E0.01494
G1 X191.329 Y125.519 E0.54518
G1 X191.11 Y125.474 E0.00837
G1 X190.877 Y125.351 E0.00986
G1 X190.714 Y125.131 E0.01025
G1 X190.638 Y124.878 E0.00988
G1 X190.637 Y110.253 E0.54723
G1 X190.788 Y109.901 E0.01433
G1 X190.888 Y109.796 E0.00543
G1 X191.255 Y109.639 E0.01494
G1 X205.825 Y109.639 E0.54518
G1 X206.044 Y109.684 E0.00837
G1 X206.277 Y109.807 E0.00986
G1 X206.372 Y109.906 E0.00513
G1 X206.517 Y110.247 E0.01387
G1 X206.516 Y124.876 E0.54738
G1 X206.366 Y125.257 E0.01532
G1 X206.266 Y125.362 E0.00543
G10
G0 F30000 X225.503 Y125.596
G11
G1 F9000 X225.291 Y125.72 E0.00919
G1 X224.988 Y125.819 E0.01193
G1 X210.379 Y125.819 E0.54663
G1 X210.041 Y125.75 E0.01291
G1 X209.738 Y125.584 E0.01293
G1 X209.495 Y125.264 E0.01503
G1 X209.389 Y124.904 E0.01404
G1 X209.387 Y110.213 E0.5497
G1 X209.597 Y109.723 E0.01995
G1 X209.751 Y109.562 E0.00834
G1 X209.963 Y109.438 E0.00919
G1 X210.266 Y109.339 E0.01193
G1 X224.875 Y109.339 E0.54663
G1 X225.213 Y109.408 E0.01291
G1 X225.516 Y109.574 E0.01293
G1 X225.759 Y109.893 E0.015
G1 X225.867 Y110.205 E0.01235
G1 X225.865 Y124.902 E0.54993
G1 X225.805 Y125.147 E0.00944
G1 X225.657 Y125.435 E0.01212
G1 X225.503 Y125.596 E0.00834
G0 F30000 X225.316 Y125.362
G1 F9000 X224.949 Y125.519 E0.01494
G1 X210.379 Y125.519 E0.54518
G1 X210.16 Y125.474 E0.00837
G1 X209.927 Y125.351 E0.00986
G1 X209.764 Y125.131 E0.01025
G1 X209.688 Y124.878 E0.00988
G1 X209.687 Y110.253 E0.54723
G1 X209.838 Y109.901 E0.01433
G1 X209.938 Y109.796 E0.00543
G1 X210.305 Y109.639 E0.01494
G1 X224.875 Y109.639 E0.54518
G1 X225.094 Y109.684 E0.00837
G1 X225.327 Y109.807 E0.00986
G1 X225.422 Y109.906 E0.00513
G1 X225.567 Y110.247 E0.01387
G1 X225.566 Y124.876 E0.54738
G1 X225.416 Y125.257 E0.01532
G1 X225.316 Y125.362 E0.00543
G10
G0 F30000 X224.017 Y106.527
G11
G1 F9000 X223.868 Y106.364 E0.00826
G1 X223.675 Y105.89 E0.01915
G1 X223.677 Y91.218 E0.54899
G1 X223.789 Y90.839 E0.01479
G1 X224.041 Y90.51 E0.01551
G1 X224.251 Y90.388 E0.00909
G1 X224.554 Y90.289 E0.01193
G1 X239.163 Y90.289 E0.54663
G1 X239.501 Y90.358 E0.01291
G1 X239.812 Y90.531 E0.01332
G1 X239.962 Y90.693 E0.00826
G1 X240.155 Y91.161 E0.01894
G1 X240.155 Y105.896 E0.55135
G1 X240.041 Y106.219 E0.01282
G1 X239.873 Y106.471 E0.01133
G1 X239.579 Y106.67 E0.01328
G1 X239.276 Y106.769 E0.01193
G1 X224.667 Y106.769 E0.54663
G1 X224.329 Y106.7 E0.01291
G1 X224.017 Y106.527 E0.01335
G0 F30000 X224.21 Y106.297
G1 F9000 X224.113 Y106.191 E0.00538
G1 X223.975 Y105.853 E0.01366
G1 X223.976 Y91.189 E0.54869
G1 X224.128 Y90.848 E0.01397
G1 X224.228 Y90.745 E0.00537
G1 X224.593 Y90.589 E0.01485
G1 X239.163 Y90.589 E0.54518
G1 X239.382 Y90.634 E0.00837
G1 X239.62 Y90.761 E0.01009
G1 X239.717 Y90.866 E0.00535
G1 X239.855 Y91.204 E0.01366
G1 X239.855 Y105.856 E0.54824
G1 X239.657 Y106.263 E0.01694
G1 X239.467 Y106.392 E0.00859
G1 X239.237 Y106.469 E0.00908
G1 X224.667 Y106.469 E0.54518
G1 X224.448 Y106.424 E0.00837
G1 X224.21 Y106.297 E0.01009
G10
G0 F30000 X200.213 Y106.534
G11
G1 F9000 X199.97 Y106.214 E0.01503
G1 X199.864 Y105.854 E0.01404
G1 X199.862 Y91.15 E0.55019
G1 X200.043 Y90.714 E0.01766
G1 X200.255 Y90.49 E0.01154
G1 X200.741 Y90.289 E0.01968
G1 X215.35 Y90.289 E0.54663
G1 X215.688 Y90.358 E0.01291
G1 X215.999 Y90.531 E0.01332
G1 X216.243 Y90.865 E0.01548
G1 X216.34 Y91.216 E0.01363
G1 X216.342 Y105.896 E0.54929
G1 X216.228 Y106.219 E0.01282
G1 X216.06 Y106.471 E0.01133
G1 X215.766 Y106.67 E0.01328
G1 X215.463 Y106.769 E0.01193
G1 X200.854 Y106.769 E0.54663
G1 X200.516 Y106.7 E0.01291
G1 X200.213 Y106.534 E0.01293
G0 F30000 X200.402 Y106.301
G1 F9000 X200.239 Y106.081 E0.01025
G1 X200.163 Y105.828 E0.00988
G1 X200.162 Y91.198 E0.54742
G1 X200.34 Y90.817 E0.01574
G1 X200.55 Y90.666 E0.00968
G1 X200.78 Y90.589 E0.00908
G1 X215.35 Y90.589 E0.54518
G1 X215.569 Y90.634 E0.00837
G1 X215.807 Y90.761 E0.01009
G1 X215.964 Y90.977 E0.00999
G1 X216.041 Y91.237 E0.01015
G1 X216.042 Y105.856 E0.54701
G1 X215.844 Y106.263 E0.01694
G1 X215.654 Y106.392 E0.00859
G1 X215.424 Y106.469 E0.00908
G1 X200.854 Y106.469 E0.54518
G1 X200.635 Y106.424 E0.00837
G1 X200.402 Y106.301 E0.00986
G10
G0 F30000 X196.928 Y106.546
G11
G1 F9000 X196.716 Y106.67 E0.00919
G1 X196.413 Y106.769 E0.01193
G1 X181.804 Y106.769 E0.54663
G1 X181.466 Y106.7 E0.01291
G1 X181.163 Y106.534 E0.01293
G1 X180.92 Y106.214 E0.01503
G1 X180.814 Y105.854 E0.01404
G1 X180.812 Y91.15 E0.55019
G1 X180.993 Y90.714 E0.01766
G1 X181.205 Y90.49 E0.01154
G1 X181.691 Y90.289 E0.01968
G1 X196.3 Y90.289 E0.54663
G1 X196.742 Y90.403 E0.01708
G1 X197.046 Y90.626 E0.01411
G1 X197.184 Y90.843 E0.00962
G1 X197.292 Y91.155 E0.01235
G1 X197.29 Y105.852 E0.54993
G1 X197.23 Y106.097 E0.00944
G1 X197.082 Y106.385 E0.01212
G1 X196.928 Y106.546 E0.00834
G0 F30000 X196.741 Y106.312
G1 F9000 X196.374 Y106.469 E0.01494
G1 X181.804 Y106.469 E0.54518
G1 X181.585 Y106.424 E0.00837
G1 X181.352 Y106.301 E0.00986
G1 X181.189 Y106.081 E0.01025
G1 X181.113 Y105.828 E0.00988
G1 X181.112 Y91.198 E0.54742
G1 X181.29 Y90.817 E0.01574
G1 X181.5 Y90.666 E0.00968
G1 X181.73 Y90.589 E0.00908
G1 X196.3 Y90.589 E0.54518
G1 X196.623 Y90.679 E0.01255
G1 X196.82 Y90.823 E0.00913
G1 X196.992 Y91.196 E0.01537
G1 X196.991 Y105.826 E0.54742
G1 X196.841 Y106.207 E0.01532
G1 X196.741 Y106.312 E0.00543
G10
G0 F30000 X177.878 Y106.546
G11
G1 F9000 X177.666 Y106.67 E0.00919
G1 X177.363 Y106.769 E0.01193
G1 X162.754 Y106.769 E0.54663
G1 X162.416 Y106.7 E0.01291
G1 X162.113 Y106.534 E0.01293
G1 X161.87 Y106.214 E0.01503
G1 X161.764 Y105.854 E0.01404
G1 X161.762 Y91.15 E0.55019
G1 X161.943 Y90.714 E0.01766
G1 X162.155 Y90.49 E0.01154
G1 X162.641 Y90.289 E0.01968
G1 X177.25 Y90.289 E0.54663
G1 X177.692 Y90.403 E0.01708
G1 X177.996 Y90.626 E0.01411
G1 X178.134 Y90.843 E0.00962
G1 X178.242 Y91.155 E0.01235
G1 X178.24 Y105.852 E0.54993
G1 X178.18 Y106.097 E0.00944
G1 X178.032 Y106.385 E0.01212
G1 X177.878 Y106.546 E0.00834
G0 F30000 X177.691 Y106.312
G1 F9000 X177.324 Y106.469 E0.01494
G1 X162.754 Y106.469 E0.54518
G1 X162.535 Y106.424 E0.00837
G1 X162.302 Y106.301 E0.00986
G1 X162.139 Y106.081 E0.01025
G1 X162.063 Y105.828 E0.00988
G1 X162.062 Y91.198 E0.54742
G1 X162.24 Y90.817 E0.01574
G1 X162.45 Y90.666 E0.00968
G1 X162.68 Y90.589 E0.00908
G1 X177.25 Y90.589 E0.54518
G1 X177.573 Y90.679 E0.01255
G1 X177.77 Y90.823 E0.00913
G1 X177.942 Y91.196 E0.01537
G1 X177.941 Y105.826 E0.54742
G1 X177.791 Y106.207 E0.01532
G1 X177.691 Y106.312 E0.00543
G10
G0 F30000 X158.828 Y106.546
G11
G1 F9000 X158.616 Y106.67 E0.00919
G1 X158.313 Y106.769 E0.01193
G1 X143.704 Y106.769 E0.54663
G1 X143.366 Y106.7 E0.01291
G1 X143.063 Y106.534 E0.01293
G1 X142.82 Y106.214 E0.01503
G1 X142.714 Y105.854 E0.01404
G1 X142.712 Y91.15 E0.55019
G1 X142.893 Y90.714 E0.01766
G1 X143.105 Y90.49 E0.01154
G1 X143.591 Y90.289 E0.01968
G1 X158.2 Y90.289 E0.54663
G1 X158.642 Y90.403 E0.01708
G1 X158.946 Y90.626 E0.01411
G1 X159.084 Y90.843 E0.00962
G1 X159.192 Y91.155 E0.01235
G1 X159.19 Y105.852 E0.54993
G1 X159.13 Y106.097 E0.00944
G1 X158.982 Y106.385 E0.01212
G1 X158.828 Y106.546 E0.00834
G0 F30000 X158.641 Y106.312
G1 F9000 X158.274 Y106.469 E0.01494
G1 X143.704 Y106.469 E0.54518
G1 X143.485 Y106.424 E0.00837
G1 X143.252 Y106.301 E0.00986
G1 X143.089 Y106.081 E0.01025
G1 X143.013 Y105.828 E0.00988
G1 X143.012 Y91.198 E0.54742
G1 X143.19 Y90.817 E0.01574
G1 X143.4 Y90.666 E0.00968
G1 X143.63 Y90.589 E0.00908
G1 X158.2 Y90.589 E0.54518
G1 X158.523 Y90.679 E0.01255
G1 X158.72 Y90.823 E0.00913
G1 X158.892 Y91.196 E0.01537
G1 X158.891 Y105.826 E0.54742
G1 X158.741 Y106.207 E0.01532
G1 X158.641 Y106.312 E0.00543
G10
G0 F30000 X139.778 Y106.546
G11
G1 F9000 X139.566 Y106.67 E0.00919
G1 X139.263 Y106.769 E0.01193
G1 X124.654 Y106.769 E0.54663
G1 X124.316 Y106.7 E0.01291
G1 X124.013 Y106.534 E0.01293
G1 X123.77 Y106.214 E0.01503
G1 X123.664 Y105.854 E0.01404
G1 X123.662 Y91.15 E0.55019
G1 X123.843 Y90.714 E0.01766
G1 X124.055 Y90.49 E0.01154
G1 X124.541 Y90.289 E0.01968
G1 X139.15 Y90.289 E0.54663
G1 X139.592 Y90.403 E0.01708
G1 X139.896 Y90.626 E0.01411
G1 X140.034 Y90.843 E0.00962
G1 X140.142 Y91.155 E0.01235
G1 X140.14 Y105.852 E0.54993
G1 X140.08 Y106.097 E0.00944
G1 X139.932 Y106.385 E0.01212
G1 X139.778 Y106.546 E0.00834
G0 F30000 X139.591 Y106.312
G1 F9000 X139.224 Y106.469 E0.01494
G1 X124.654 Y106.469 E0.54518
G1 X124.435 Y106.424 E0.00837
G1 X124.202 Y106.301 E0.00986
G1 X124.039 Y106.081 E0.01025
G1 X123.963 Y105.828 E0.00988
G1 X123.962 Y91.198 E0.54742
G1 X124.14 Y90.817 E0.01574
G1 X124.35 Y90.666 E0.00968
G1 X124.58 Y90.589 E0.00908
G1 X139.15 Y90.589 E0.54518
G1 X139.473 Y90.679 E0.01255
G1 X139.67 Y90.823 E0.00913
G1 X139.842 Y91.196 E0.01537
G1 X139.841 Y105.826 E0.54742
