;FLAVOR:RepRap
;TIME:4464
;Filament used: 11.7473m
;Layer height: 0.2
;MINX:61.41
;MINY:83.89
;MINZ:0.3
;MAXX:250.59
;MAXY:223.099
;MAXZ:17.3
;TARGET_MACHINE.NAME:Unknown
;Generated with Cura_SteamEngine 5.5.0
T0
M140 S80
M104 S247
M82 ;absolute extrusion mode
M98 P"startPrint.g"
M83 ;relative extrusion mode
G10
;LAYER_COUNT:86
;LAYER:0
M107
;MESH:keyboard_left.amf
G0 F30000 X66.465 Y104.833 Z0.3
;TYPE:WALL-INNER
G11
G1 F9000 X66.306 Y104.679 E0.00828
G1 X66.184 Y104.469 E0.00909
G1 X66.085 Y104.166 E0.01193
G1 X66.085 Y89.557 E0.54663
G1 X66.154 Y89.219 E0.01291
G1 X66.377 Y88.852 E0.01607
G1 X66.661 Y88.664 E0.01274
G1 X66.964 Y88.565 E0.01193
G1 X81.573 Y88.565 E0.54663
G1 X82.015 Y88.679 E0.01708
G1 X82.319 Y88.902 E0.01411
G1 X82.457 Y89.119 E0.00962
G1 X82.565 Y89.431 E0.01235
G1 X82.563 Y104.128 E0.54993
G1 X82.503 Y104.373 E0.00944
G1 X82.355 Y104.661 E0.01212
G1 X82.201 Y104.822 E0.00834
G1 X81.989 Y104.946 E0.00919
G1 X81.686 Y105.045 E0.01193
G1 X66.953 Y105.045 E0.55127
G1 X66.465 Y104.833 E0.01991
G10
G0 F30000 X67.588 Y103.542
G0 X81.062 Y103.542
G0 X82.014 Y104.588
G11
G1 F9000 X81.647 Y104.745 E0.01494
G1 X66.996 Y104.745 E0.54821
G1 X66.644 Y104.592 E0.01436
G1 X66.541 Y104.492 E0.00537
G1 X66.385 Y104.127 E0.01485
G1 X66.385 Y89.557 E0.54518
G1 X66.43 Y89.338 E0.00837
G1 X66.59 Y89.064 E0.01187
G1 X66.773 Y88.942 E0.00823
G1 X67.003 Y88.865 E0.00908
G1 X81.573 Y88.865 E0.54518
G1 X81.896 Y88.955 E0.01255
G1 X82.093 Y89.099 E0.00913
G1 X82.265 Y89.472 E0.01537
G1 X82.264 Y104.102 E0.54742
G1 X82.114 Y104.483 E0.01532
G1 X82.014 Y104.588 E0.00543
G10
G0 F30000 X101.251 Y104.822
G11
G1 F9000 X101.039 Y104.946 E0.00919
G1 X100.736 Y105.045 E0.01193
G1 X86.127 Y105.045 E0.54663
G1 X85.789 Y104.976 E0.01291
G1 X85.486 Y104.81 E0.01293
G1 X85.243 Y104.49 E0.01503
G1 X85.137 Y104.13 E0.01404
G1 X85.135 Y89.426 E0.55019
G1 X85.316 Y88.99 E0.01766
G1 X85.528 Y88.766 E0.01154
G1 X86.014 Y88.565 E0.01968
G1 X100.623 Y88.565 E0.54663
G1 X101.065 Y88.679 E0.01708
G1 X101.369 Y88.902 E0.01411
G1 X101.507 Y89.119 E0.00962
G1 X101.615 Y89.431 E0.01235
G1 X101.613 Y104.128 E0.54993
G1 X101.553 Y104.373 E0.00944
G1 X101.405 Y104.661 E0.01212
G1 X101.251 Y104.822 E0.00834
G0 F30000 X101.064 Y104.588
G1 F9000 X100.697 Y104.745 E0.01494
G1 X86.127 Y104.745 E0.54518
G1 X85.908 Y104.7 E0.00837
G1 X85.675 Y104.577 E0.00986
G1 X85.512 Y104.357 E0.01025
G1 X85.436 Y104.104 E0.00988
G1 X85.435 Y89.474 E0.54742
G1 X85.613 Y89.093 E0.01574
G1 X85.823 Y88.942 E0.00968
G1 X86.053 Y88.865 E0.00908
G1 X100.623 Y88.865 E0.54518
G1 X100.946 Y88.955 E0.01255
G1 X101.143 Y89.099 E0.00913
G1 X101.315 Y89.472 E0.01537
G1 X101.314 Y104.102 E0.54742
G1 X101.164 Y104.483 E0.01532
G1 X101.064 Y104.588 E0.00543
G10
G0 F30000 X120.301 Y104.822
G11
G1 F9000 X120.089 Y104.946 E0.00919
G1 X119.786 Y105.045 E0.01193
G1 X105.177 Y105.045 E0.54663
G1 X104.839 Y104.976 E0.01291
G1 X104.536 Y104.81 E0.01293
G1 X104.293 Y104.49 E0.01503
G1 X104.187 Y104.13 E0.01404
G1 X104.185 Y89.426 E0.55019
G1 X104.366 Y88.99 E0.01766
G1 X104.578 Y88.766 E0.01154
G1 X105.064 Y88.565 E0.01968
G1 X119.673 Y88.565 E0.54663
G1 X120.115 Y88.679 E0.01708
G1 X120.419 Y88.902 E0.01411
G1 X120.557 Y89.119 E0.00962
G1 X120.665 Y89.431 E0.01235
G1 X120.663 Y104.128 E0.54993
G1 X120.603 Y104.373 E0.00944
G1 X120.455 Y104.661 E0.01212
G1 X120.301 Y104.822 E0.00834
G0 F30000 X120.114 Y104.588
G1 F9000 X119.747 Y104.745 E0.01494
G1 X105.177 Y104.745 E0.54518
G1 X104.958 Y104.7 E0.00837
G1 X104.725 Y104.577 E0.00986
G1 X104.562 Y104.357 E0.01025
G1 X104.486 Y104.104 E0.00988
G1 X104.485 Y89.474 E0.54742
G1 X104.663 Y89.093 E0.01574
G1 X104.873 Y88.942 E0.00968
G1 X105.103 Y88.865 E0.00908
G1 X119.673 Y88.865 E0.54518
G1 X119.996 Y88.955 E0.01255
G1 X120.193 Y89.099 E0.00913
G1 X120.365 Y89.472 E0.01537
G1 X120.364 Y104.102 E0.54742
G1 X120.214 Y104.483 E0.01532
G1 X120.114 Y104.588 E0.00543
G10
G0 F30000 X139.351 Y104.822
G11
G1 F9000 X139.139 Y104.946 E0.00919
G1 X138.836 Y105.045 E0.01193
G1 X124.227 Y105.045 E0.54663
G1 X123.889 Y104.976 E0.01291
G1 X123.586 Y104.81 E0.01293
G1 X123.343 Y104.49 E0.01503
G1 X123.237 Y104.13 E0.01404
G1 X123.235 Y89.426 E0.55019
G1 X123.416 Y88.99 E0.01766
G1 X123.628 Y88.766 E0.01154
G1 X124.114 Y88.565 E0.01968
G1 X138.723 Y88.565 E0.54663
G1 X139.165 Y88.679 E0.01708
G1 X139.469 Y88.902 E0.01411
G1 X139.607 Y89.119 E0.00962
G1 X139.715 Y89.431 E0.01235
G1 X139.713 Y104.128 E0.54993
G1 X139.653 Y104.373 E0.00944
G1 X139.505 Y104.661 E0.01212
G1 X139.351 Y104.822 E0.00834
G0 F30000 X139.164 Y104.588
G1 F9000 X138.797 Y104.745 E0.01494
G1 X124.227 Y104.745 E0.54518
G1 X124.008 Y104.7 E0.00837
G1 X123.775 Y104.577 E0.00986
G1 X123.612 Y104.357 E0.01025
G1 X123.536 Y104.104 E0.00988
G1 X123.535 Y89.474 E0.54742
G1 X123.713 Y89.093 E0.01574
G1 X123.923 Y88.942 E0.00968
G1 X124.153 Y88.865 E0.00908
G1 X138.723 Y88.865 E0.54518
G1 X139.046 Y88.955 E0.01255
G1 X139.243 Y89.099 E0.00913
G1 X139.415 Y89.472 E0.01537
G1 X139.414 Y104.102 E0.54742
G1 X139.264 Y104.483 E0.01532
G1 X139.164 Y104.588 E0.00543
G10
G0 F30000 X158.401 Y104.822
G11
G1 F9000 X158.189 Y104.946 E0.00919
G1 X157.886 Y105.045 E0.01193
G1 X143.277 Y105.045 E0.54663
G1 X142.939 Y104.976 E0.01291
G1 X142.636 Y104.81 E0.01293
G1 X142.393 Y104.49 E0.01503
G1 X142.287 Y104.13 E0.01404
G1 X142.285 Y89.426 E0.55019
G1 X142.466 Y88.99 E0.01766
G1 X142.678 Y88.766 E0.01154
G1 X143.164 Y88.565 E0.01968
G1 X157.773 Y88.565 E0.54663
G1 X158.215 Y88.679 E0.01708
G1 X158.519 Y88.902 E0.01411
G1 X158.657 Y89.119 E0.00962
G1 X158.765 Y89.431 E0.01235
G1 X158.763 Y104.128 E0.54993
G1 X158.703 Y104.373 E0.00944
G1 X158.555 Y104.661 E0.01212
G1 X158.401 Y104.822 E0.00834
G0 F30000 X158.214 Y104.588
G1 F9000 X157.847 Y104.745 E0.01494
G1 X143.277 Y104.745 E0.54518
G1 X143.058 Y104.7 E0.00837
G1 X142.825 Y104.577 E0.00986
G1 X142.662 Y104.357 E0.01025
G1 X142.586 Y104.104 E0.00988
G1 X142.585 Y89.474 E0.54742
G1 X142.763 Y89.093 E0.01574
G1 X142.973 Y88.942 E0.00968
G1 X143.203 Y88.865 E0.00908
G1 X157.773 Y88.865 E0.54518
G1 X158.096 Y88.955 E0.01255
G1 X158.293 Y89.099 E0.00913
G1 X158.465 Y89.472 E0.01537
G1 X158.464 Y104.102 E0.54742
G1 X158.314 Y104.483 E0.01532
G1 X158.214 Y104.588 E0.00543
G10
G0 F30000 X177.451 Y104.822
G11
G1 F9000 X177.239 Y104.946 E0.00919
G1 X176.936 Y105.045 E0.01193
G1 X162.327 Y105.045 E0.54663
G1 X161.989 Y104.976 E0.01291
G1 X161.686 Y104.81 E0.01293
G1 X161.443 Y104.49 E0.01503
G1 X161.337 Y104.13 E0.01404
G1 X161.335 Y89.426 E0.55019
G1 X161.516 Y88.99 E0.01766
G1 X161.728 Y88.766 E0.01154
G1 X162.214 Y88.565 E0.01968
G1 X176.823 Y88.565 E0.54663
G1 X177.265 Y88.679 E0.01708
G1 X177.569 Y88.902 E0.01411
G1 X177.707 Y89.119 E0.00962
G1 X177.815 Y89.431 E0.01235
G1 X177.813 Y104.128 E0.54993
G1 X177.753 Y104.373 E0.00944
G1 X177.605 Y104.661 E0.01212
G1 X177.451 Y104.822 E0.00834
G0 F30000 X177.264 Y104.588
G1 F9000 X176.897 Y104.745 E0.01494
G1 X162.327 Y104.745 E0.54518
G1 X162.108 Y104.7 E0.00837
G1 X161.875 Y104.577 E0.00986
G1 X161.712 Y104.357 E0.01025
G1 X161.636 Y104.104 E0.00988
G1 X161.635 Y89.474 E0.54742
G1 X161.813 Y89.093 E0.01574
G1 X162.023 Y88.942 E0.00968
G1 X162.253 Y88.865 E0.00908
G1 X176.823 Y88.865 E0.54518
G1 X177.146 Y88.955 E0.01255
G1 X177.343 Y89.099 E0.00913
G1 X177.515 Y89.472 E0.01537
G1 X177.514 Y104.102 E0.54742
G1 X177.364 Y104.483 E0.01532
G1 X177.264 Y104.588 E0.00543
G10
G0 F30000 X196.469 Y104.846
G11
G1 F9000 X196.1 Y105.016 E0.0152
G1 X195.939 Y105.043 E0.00611
G1 X181.377 Y105.045 E0.54488
G1 X181.039 Y104.976 E0.01291
G1 X180.736 Y104.81 E0.01293
G1 X180.493 Y104.49 E0.01503
G1 X180.387 Y104.13 E0.01404
G1 X180.385 Y89.426 E0.55019
G1 X180.566 Y88.99 E0.01766
G1 X180.778 Y88.766 E0.01154
G1 X181.264 Y88.565 E0.01968
G1 X195.873 Y88.565 E0.54663
G1 X196.211 Y88.634 E0.01291
G1 X196.522 Y88.807 E0.01332
G1 X196.672 Y88.969 E0.00826
G1 X196.865 Y89.444 E0.01918
G1 X196.864 Y104.112 E0.54884
G1 X196.796 Y104.391 E0.01075
G1 X196.627 Y104.698 E0.01311
G1 X196.469 Y104.846 E0.0081
G0 F30000 X196.239 Y104.638
G1 F9000 X195.917 Y104.744 E0.01268
G1 X181.377 Y104.745 E0.54405
G1 X181.158 Y104.7 E0.00837
G1 X180.925 Y104.577 E0.00986
G1 X180.762 Y104.357 E0.01025
G1 X180.686 Y104.104 E0.00988
G1 X180.685 Y89.474 E0.54742
G1 X180.863 Y89.093 E0.01574
G1 X181.073 Y88.942 E0.00968
G1 X181.303 Y88.865 E0.00908
G1 X195.873 Y88.865 E0.54518
G1 X196.092 Y88.91 E0.00837
G1 X196.33 Y89.037 E0.01009
G1 X196.427 Y89.142 E0.00535
G1 X196.565 Y89.485 E0.01383
G1 X196.564 Y104.091 E0.54652
G1 X196.418 Y104.478 E0.01548
G1 X196.239 Y104.638 E0.00898
G10
G0 F30000 X171.211 Y123.86
G11
G1 F9000 X170.968 Y123.54 E0.01503
G1 X170.862 Y123.18 E0.01404
G1 X170.86 Y108.489 E0.5497
G1 X171.07 Y107.999 E0.01995
G1 X171.224 Y107.838 E0.00834
G1 X171.436 Y107.714 E0.00919
G1 X171.739 Y107.615 E0.01193
G1 X186.348 Y107.615 E0.54663
G1 X186.686 Y107.684 E0.01291
G1 X186.998 Y107.857 E0.01335
G1 X187.147 Y108.02 E0.00826
G1 X187.34 Y108.494 E0.01915
G1 X187.34 Y123.222 E0.55109
G1 X187.226 Y123.545 E0.01282
G1 X187.058 Y123.797 E0.01133
G1 X186.764 Y123.996 E0.01328
G1 X186.461 Y124.095 E0.01193
G1 X171.852 Y124.095 E0.54663
G1 X171.514 Y124.026 E0.01291
G1 X171.211 Y123.86 E0.01293
G0 F30000 X171.4 Y123.627
G1 F9000 X171.237 Y123.407 E0.01025
G1 X171.161 Y123.154 E0.00988
G1 X171.16 Y108.529 E0.54723
G1 X171.311 Y108.177 E0.01433
G1 X171.411 Y108.072 E0.00543
G1 X171.778 Y107.915 E0.01494
G1 X186.348 Y107.915 E0.54518
G1 X186.567 Y107.96 E0.00837
G1 X186.805 Y108.087 E0.01009
G1 X186.902 Y108.193 E0.00538
G1 X187.04 Y108.531 E0.01366
G1 X187.04 Y123.182 E0.54821
G1 X186.842 Y123.589 E0.01694
G1 X186.652 Y123.718 E0.00859
G1 X186.422 Y123.795 E0.00908
G1 X171.852 Y123.795 E0.54518
G1 X171.633 Y123.75 E0.00837
G1 X171.4 Y123.627 E0.00986
G10
G0 F30000 X167.926 Y123.872
G11
G1 F9000 X167.714 Y123.996 E0.00919
G1 X167.411 Y124.095 E0.01193
G1 X152.802 Y124.095 E0.54663
G1 X152.464 Y124.026 E0.01291
G1 X152.161 Y123.86 E0.01293
G1 X151.918 Y123.54 E0.01503
G1 X151.812 Y123.18 E0.01404
G1 X151.81 Y108.489 E0.5497
G1 X152.02 Y107.999 E0.01995
G1 X152.174 Y107.838 E0.00834
G1 X152.386 Y107.714 E0.00919
G1 X152.689 Y107.615 E0.01193
G1 X167.298 Y107.615 E0.54663
G1 X167.636 Y107.684 E0.01291
G1 X167.939 Y107.85 E0.01293
G1 X168.182 Y108.169 E0.015
G1 X168.29 Y108.481 E0.01235
G1 X168.288 Y123.178 E0.54993
G1 X168.228 Y123.423 E0.00944
G1 X168.08 Y123.711 E0.01212
G1 X167.926 Y123.872 E0.00834
G0 F30000 X167.739 Y123.638
G1 F9000 X167.372 Y123.795 E0.01494
G1 X152.802 Y123.795 E0.54518
G1 X152.583 Y123.75 E0.00837
G1 X152.35 Y123.627 E0.00986
G1 X152.187 Y123.407 E0.01025
G1 X152.111 Y123.154 E0.00988
G1 X152.11 Y108.529 E0.54723
G1 X152.261 Y108.177 E0.01433
G1 X152.361 Y108.072 E0.00543
G1 X152.728 Y107.915 E0.01494
G1 X167.298 Y107.915 E0.54518
G1 X167.517 Y107.96 E0.00837
G1 X167.75 Y108.083 E0.00986
G1 X167.845 Y108.182 E0.00513
G1 X167.99 Y108.523 E0.01387
G1 X167.989 Y123.152 E0.54738
G1 X167.839 Y123.533 E0.01532
G1 X167.739 Y123.638 E0.00543
G10
G0 F30000 X148.876 Y123.872
G11
G1 F9000 X148.664 Y123.996 E0.00919
G1 X148.361 Y124.095 E0.01193
G1 X133.752 Y124.095 E0.54663
G1 X133.414 Y124.026 E0.01291
G1 X133.111 Y123.86 E0.01293
G1 X132.868 Y123.54 E0.01503
G1 X132.762 Y123.18 E0.01404
G1 X132.76 Y108.489 E0.5497
G1 X132.97 Y107.999 E0.01995
G1 X133.124 Y107.838 E0.00834
G1 X133.336 Y107.714 E0.00919
G1 X133.639 Y107.615 E0.01193
G1 X148.248 Y107.615 E0.54663
G1 X148.586 Y107.684 E0.01291
G1 X148.889 Y107.85 E0.01293
G1 X149.132 Y108.169 E0.015
G1 X149.24 Y108.481 E0.01235
G1 X149.238 Y123.178 E0.54993
G1 X149.178 Y123.423 E0.00944
G1 X149.03 Y123.711 E0.01212
G1 X148.876 Y123.872 E0.00834
G0 F30000 X148.689 Y123.638
G1 F9000 X148.322 Y123.795 E0.01494
G1 X133.752 Y123.795 E0.54518
G1 X133.533 Y123.75 E0.00837
G1 X133.3 Y123.627 E0.00986
G1 X133.137 Y123.407 E0.01025
G1 X133.061 Y123.154 E0.00988
G1 X133.06 Y108.529 E0.54723
G1 X133.211 Y108.177 E0.01433
G1 X133.311 Y108.072 E0.00543
G1 X133.678 Y107.915 E0.01494
G1 X148.248 Y107.915 E0.54518
G1 X148.467 Y107.96 E0.00837
G1 X148.7 Y108.083 E0.00986
G1 X148.795 Y108.182 E0.00513
G1 X148.94 Y108.523 E0.01387
G1 X148.939 Y123.152 E0.54738
G1 X148.789 Y123.533 E0.01532
G1 X148.689 Y123.638 E0.00543
G10
G0 F30000 X129.826 Y123.872
G11
G1 F9000 X129.614 Y123.996 E0.00919
G1 X129.311 Y124.095 E0.01193
G1 X114.702 Y124.095 E0.54663
G1 X114.364 Y124.026 E0.01291
G1 X114.061 Y123.86 E0.01293
G1 X113.818 Y123.54 E0.01503
G1 X113.712 Y123.18 E0.01404
G1 X113.71 Y108.489 E0.5497
G1 X113.92 Y107.999 E0.01995
G1 X114.074 Y107.838 E0.00834
G1 X114.286 Y107.714 E0.00919
G1 X114.589 Y107.615 E0.01193
G1 X129.198 Y107.615 E0.54663
G1 X129.536 Y107.684 E0.01291
G1 X129.839 Y107.85 E0.01293
G1 X130.082 Y108.169 E0.015
G1 X130.19 Y108.481 E0.01235
G1 X130.188 Y123.178 E0.54993
G1 X130.128 Y123.423 E0.00944
G1 X129.98 Y123.711 E0.01212
G1 X129.826 Y123.872 E0.00834
G0 F30000 X129.639 Y123.638
G1 F9000 X129.272 Y123.795 E0.01494
G1 X114.702 Y123.795 E0.54518
G1 X114.483 Y123.75 E0.00837
G1 X114.25 Y123.627 E0.00986
G1 X114.087 Y123.407 E0.01025
G1 X114.011 Y123.154 E0.00988
G1 X114.01 Y108.529 E0.54723
G1 X114.161 Y108.177 E0.01433
G1 X114.261 Y108.072 E0.00543
G1 X114.628 Y107.915 E0.01494
G1 X129.198 Y107.915 E0.54518
G1 X129.417 Y107.96 E0.00837
G1 X129.65 Y108.083 E0.00986
G1 X129.745 Y108.182 E0.00513
G1 X129.89 Y108.523 E0.01387
G1 X129.889 Y123.152 E0.54738
G1 X129.739 Y123.533 E0.01532
G1 X129.639 Y123.638 E0.00543
G10
G0 F30000 X134.588 Y142.922
G11
G1 F9000 X134.376 Y143.046 E0.00919
G1 X134.073 Y143.145 E0.01193
G1 X119.464 Y143.145 E0.54663
G1 X119.126 Y143.076 E0.01291
G1 X118.823 Y142.91 E0.01293
G1 X118.58 Y142.591 E0.015
G1 X118.474 Y142.23 E0.01408
G1 X118.472 Y127.539 E0.5497
G1 X118.682 Y127.049 E0.01995
G1 X118.836 Y126.888 E0.00834
G1 X119.048 Y126.764 E0.00919
G1 X119.351 Y126.665 E0.01193
G1 X133.96 Y126.665 E0.54663
G1 X134.298 Y126.734 E0.01291
G1 X134.601 Y126.9 E0.01293
G1 X134.844 Y127.219 E0.015
G1 X134.952 Y127.531 E0.01235
G1 X134.95 Y142.228 E0.54993
G1 X134.89 Y142.473 E0.00944
G1 X134.742 Y142.761 E0.01212
G1 X134.588 Y142.922 E0.00834
G0 F30000 X134.401 Y142.688
G1 F9000 X134.034 Y142.845 E0.01494
G1 X119.464 Y142.845 E0.54518
G1 X119.245 Y142.8 E0.00837
G1 X119.012 Y142.677 E0.00986
G1 X118.885 Y142.529 E0.0073
G1 X118.773 Y142.204 E0.01286
G1 X118.772 Y127.579 E0.54723
G1 X118.923 Y127.227 E0.01433
G1 X119.023 Y127.122 E0.00543
G1 X119.39 Y126.965 E0.01494
G1 X133.96 Y126.965 E0.54518
G1 X134.179 Y127.01 E0.00837
G1 X134.412 Y127.133 E0.00986
G1 X134.507 Y127.232 E0.00513
G1 X134.652 Y127.573 E0.01387
G1 X134.651 Y142.202 E0.54738
G1 X134.501 Y142.583 E0.01532
G1 X134.401 Y142.688 E0.00543
G10
G0 F30000 X153.638 Y142.922
G11
G1 F9000 X153.426 Y143.046 E0.00919
G1 X153.123 Y143.145 E0.01193
G1 X138.514 Y143.145 E0.54663
G1 X138.176 Y143.076 E0.01291
G1 X137.873 Y142.91 E0.01293
G1 X137.63 Y142.59 E0.01503
G1 X137.524 Y142.23 E0.01404
G1 X137.522 Y127.539 E0.5497
G1 X137.732 Y127.049 E0.01995
G1 X137.886 Y126.888 E0.00834
G1 X138.098 Y126.764 E0.00919
G1 X138.401 Y126.665 E0.01193
G1 X153.01 Y126.665 E0.54663
G1 X153.348 Y126.734 E0.01291
G1 X153.651 Y126.9 E0.01293
G1 X153.894 Y127.219 E0.015
G1 X154.002 Y127.531 E0.01235
G1 X154 Y142.228 E0.54993
G1 X153.94 Y142.473 E0.00944
G1 X153.792 Y142.761 E0.01212
G1 X153.638 Y142.922 E0.00834
G0 F30000 X153.451 Y142.688
G1 F9000 X153.084 Y142.845 E0.01494
G1 X138.514 Y142.845 E0.54518
G1 X138.295 Y142.8 E0.00837
G1 X138.062 Y142.677 E0.00986
G1 X137.899 Y142.457 E0.01025
G1 X137.823 Y142.204 E0.00988
G1 X137.822 Y127.579 E0.54723
G1 X137.973 Y127.227 E0.01433
G1 X138.073 Y127.122 E0.00543
G1 X138.44 Y126.965 E0.01494
G1 X153.01 Y126.965 E0.54518
G1 X153.229 Y127.01 E0.00837
G1 X153.462 Y127.133 E0.00986
G1 X153.557 Y127.232 E0.00513
G1 X153.702 Y127.573 E0.01387
G1 X153.701 Y142.202 E0.54738
G1 X153.551 Y142.583 E0.01532
G1 X153.451 Y142.688 E0.00543
G10
G0 F30000 X172.688 Y142.922
G11
G1 F9000 X172.476 Y143.046 E0.00919
